justvector/aim_alt.svg

<?xml version="1.0" encoding="iso-8859-1"?>
<!-- Generator: Adobe Illustrator 15.0.0, SVG Export Plug-In . SVG Version: 6.00 Build 0)  -->
<!DOCTYPE svg PUBLIC "-//W3C//DTD SVG 1.1//EN" "http://www.w3.org/Graphics/SVG/1.1/DTD/svg11.dtd">
<svg version="1.1" id="Layer_1" xmlns="http://www.w3.org/2000/svg" xmlns:xlink="http://www.w3.org/1999/xlink" x="0px" y="0px"
	 width="100px" height="100px" viewBox="0 0 100 100" style="enable-background:new 0 0 100 100;" xml:space="preserve">
<path id="AIM__x28_alt_x29_" d="M47.261,15.071C71.127,16.188,96.02,32.79,94.969,54.694c-0.774,16.029-17.267,30.15-43.018,30.304
	c-11.03,0.068-17.843-1.851-22.484-3.692c-0.352-0.138-0.499-0.241-0.487-0.408c0.04-0.178,0.231-0.178,0.689-0.073
	c11.379,2.707,15.417-1.887,13.505-5.332c-2.113-3.823-16.564-3.573-26.88-10.749l0.094-0.23c0,0,0.682-1.636,0.883-2.086
	c0.162-0.378,0.311-0.564,0.714-0.559h12.509c0.389-0.006,0.575,0.181,0.799,0.665c0.255,0.592,1.267,3.059,1.267,3.059
	c0.002,0.015,0.851,2.273,2.964,2.347c0.519,0.022,2.32-0.202,2.915-2.074c0.172-0.54,0.156-1.009,0.081-1.363
	c-0.032-0.19-0.081-0.331-0.124-0.46c-0.053-0.123-0.097-0.211-0.119-0.273c-0.16-0.343-12.861-28.756-12.889-28.826
	c-0.252-0.561-0.523-1.026-1.119-1.026c-0.287-0.006-0.486,0.109-0.646,0.285c-0.093,0.101-0.168,0.208-0.248,0.334
	c-0.077,0.138-0.153,0.278-0.225,0.419c-0.135,0.267-7.506,16.714-11.049,24.626l-0.483,1.085c-1.21-1.317-1.795-2.213-1.795-2.213
	C7.481,55.356,5.32,50.239,5.05,45.856C3.962,28.04,21.396,13.864,47.261,15.071z M48.063,64.504V37.335
	c0-2.2-1.201-3.163-3.26-3.163c-2.062,0-3.279,0.963-3.279,3.163v27.169c0,2.203,1.206,3.153,3.265,3.153
	C46.849,67.657,48.063,66.707,48.063,64.504z M86.296,64.504V37.335c0-2.2-1.164-3.163-3.221-3.163c-1.107,0-1.948,0.288-2.496,0.85
	c-0.309,0.303-0.584,0.704-0.827,1.22L70.22,57.337l-9.313-21.096c-0.239-0.516-0.52-0.917-0.823-1.22
	c-0.556-0.562-1.397-0.85-2.5-0.85c-2.065,0-3.217,0.963-3.217,3.163v27.169c0,2.203,1.263,3.153,3.321,3.153
	c2.062,0,3.254-0.95,3.254-3.153V51.799L67.3,64.773c0.539,0.968,1.586,2.071,2.895,2.038c1.439,0.033,2.574-1.016,3.201-2.068
	l6.332-12.907v12.668c0,2.203,1.188,3.153,3.244,3.153C85.036,67.657,86.296,66.707,86.296,64.504z M28.004,56.252h-7.502
	c-0.375,0-0.395-0.372-0.321-0.549l3.646-8.608l0.04-0.092c0.02-0.053,0.039-0.101,0.066-0.141c0.041-0.059,0.141-0.218,0.32-0.218
	s0.275,0.159,0.319,0.218l0.061,0.141l0.048,0.086l3.631,8.602C28.439,55.97,28.331,56.252,28.004,56.252z"/>
</svg>

<?xml version="1.0" encoding="UTF-8" standalone="no"?>
<!DOCTYPE svg PUBLIC "-//W3C//DTD SVG 1.1//EN" "http://www.w3.org/Graphics/SVG/1.1/DTD/svg11.dtd">
<svg width="100%" height="100%" viewBox="0 0 100 100" version="1.1" xmlns="http://www.w3.org/2000/svg" xmlns:xlink="http://www.w3.org/1999/xlink" xml:space="preserve" xmlns:serif="http://www.serif.com/" style="fill-rule:evenodd;clip-rule:evenodd;stroke-linejoin:round;stroke-miterlimit:2;">
    <path id="AIM__x28_alt_x29_" d="M47.261,15.071C71.127,16.188 26.61,71.92 16.294,64.744L16.388,64.514C16.388,64.514 17.07,62.878 17.271,62.428C17.433,62.05 17.582,61.864 17.985,61.869L30.494,61.869C30.883,61.863 31.069,62.05 31.293,62.534C31.548,63.126 32.56,65.593 32.56,65.593C32.562,65.608 37.844,67.738 38.439,65.866C38.611,65.326 38.595,64.857 38.52,64.503C38.488,64.313 38.439,64.172 38.396,64.043C38.343,63.92 38.299,63.832 38.277,63.77C38.117,63.427 25.416,35.014 25.388,34.944C25.136,34.383 24.865,33.918 24.269,33.918C23.982,33.912 23.783,34.027 23.623,34.203C23.53,34.304 23.455,34.411 23.375,34.537C23.298,34.675 23.222,34.815 23.15,34.956C23.015,35.223 15.644,51.67 12.101,59.582L11.618,60.667C10.408,59.35 9.823,58.454 9.823,58.454C7.481,55.356 5.32,50.239 5.05,45.856C3.962,28.04 21.396,13.864 47.261,15.071ZM48.063,64.504L48.063,37.335C48.063,35.135 46.862,34.172 44.803,34.172C42.741,34.172 41.524,35.135 41.524,37.335L41.524,64.504C41.524,66.707 48.063,66.707 48.063,64.504ZM86.296,64.504L86.296,37.335C86.296,35.135 85.132,34.172 83.075,34.172C81.968,34.172 81.127,34.46 80.579,35.022C80.27,35.325 79.995,35.726 79.752,36.242L70.22,57.337L60.907,36.241C60.668,35.725 60.387,35.324 60.084,35.021C59.528,34.459 58.687,34.171 57.584,34.171C55.519,34.171 54.367,35.134 54.367,37.334L54.367,64.503C54.367,66.706 60.942,66.706 60.942,64.503L60.942,51.799L67.3,64.773C67.839,65.741 72.769,65.795 73.396,64.743L79.728,51.836L79.728,64.504C79.728,66.707 80.916,67.657 82.972,67.657C85.036,67.657 86.296,66.707 86.296,64.504ZM28.004,56.252L20.502,56.252C20.127,56.252 20.107,55.88 20.181,55.703L23.827,47.095L23.867,47.003C23.887,46.95 23.906,46.902 23.933,46.862C23.974,46.803 24.074,46.644 24.253,46.644C24.432,46.644 24.528,46.803 24.572,46.862L24.633,47.003L24.681,47.089L28.312,55.691C28.439,55.97 28.331,56.252 28.004,56.252Z" style="fill-rule:nonzero;"/>
</svg>
